X: 134
T: Bai yin didi The rich young brother
%%abc-version 2.0
%%abcx-abcm2ps-target-version 5.9.1 (29 Sep 2008)
%%abc-creator hum2abc beta
%%abcx-conversion-date 2013/10/02 07:44:27
%%abc-edited-by Helmut Schaffrath
%%humdrum-veritas 864203827
%%humdrum-veritas-data 3811767810
%%continueall 1
%%barnumbers 0
L: 1/8
M: 2/4
K: C
GE2D/ E/ [I:setbarnb 1]| 
G A E D | 
AC2D | 
E G/ A/ G E | 
D E A G | 
C4 | 
GE2D/ E/ | 
C D/ E/ C A, | 
CE,2G, | 
A, G E3/ D/ | 
C A, D3/ C/ | 
G,4 |]  



